src/img/camera.svg

<svg width="84" height="84" viewBox="0 0 84 84" fill="none" xmlns="http://www.w3.org/2000/svg">
<path d="M68.25 68.25H15.75C14.3576 68.25 13.0223 67.6969 12.0377 66.7123C11.0531 65.7277 10.5 64.3924 10.5 63V26.25C10.5 24.8576 11.0531 23.5223 12.0377 22.5377C13.0223 21.5531 14.3576 21 15.75 21H26.2481L31.4981 13.125H52.4981L57.7481 21H68.25C69.6424 21 70.9777 21.5531 71.9623 22.5377C72.9469 23.5223 73.5 24.8576 73.5 26.25V63C73.5 64.3924 72.9469 65.7277 71.9623 66.7123C70.9777 67.6969 69.6424 68.25 68.25 68.25Z" stroke="black" stroke-width="4" stroke-linecap="round" stroke-linejoin="round"/>
<path opacity="0.3" d="M62.6499 61.5298H10.1499C8.75752 61.5298 7.42216 60.9767 6.43759 59.9921C5.45303 59.0075 4.8999 57.6722 4.8999 56.2798V19.5298C4.8999 18.1374 5.45303 16.802 6.43759 15.8175C7.42216 14.8329 8.75752 14.2798 10.1499 14.2798H20.648L25.898 6.40479H46.898L52.148 14.2798H62.6499C64.0423 14.2798 65.3776 14.8329 66.3622 15.8175C67.3468 16.802 67.8999 18.1374 67.8999 19.5298V56.2798C67.8999 57.6722 67.3468 59.0075 66.3622 59.9921C65.3776 60.9767 64.0423 61.5298 62.6499 61.5298Z" fill="black"/>
<path d="M42 55.125C48.5239 55.125 53.8125 49.8364 53.8125 43.3125C53.8125 36.7886 48.5239 31.5 42 31.5C35.4761 31.5 30.1875 36.7886 30.1875 43.3125C30.1875 49.8364 35.4761 55.125 42 55.125Z" stroke="black" stroke-width="4" stroke-linecap="round" stroke-linejoin="round"/>
</svg>

<svg width="84" height="84" viewBox="0 0 84 84" fill="none" xmlns="http://www.w3.org/2000/svg"><path d="M68.25 68.25h-52.5A5.25 5.25 0 0110.5 63V26.25A5.25 5.25 0 0115.75 21h10.498l5.25-7.875h21L57.748 21H68.25a5.25 5.25 0 015.25 5.25V63a5.25 5.25 0 01-5.25 5.25z" stroke="#000" stroke-width="2" stroke-linecap="round" stroke-linejoin="round"/><path opacity=".3" d="M62.65 61.53h-52.5a5.25 5.25 0 01-5.25-5.25V19.53a5.25 5.25 0 015.25-5.25h10.498l5.25-7.875h21l5.25 7.875H62.65a5.25 5.25 0 015.25 5.25v36.75a5.25 5.25 0 01-5.25 5.25z" fill="#000"/><path d="M42 55.125c6.524 0 11.813-5.289 11.813-11.813C53.813 36.79 48.523 31.5 42 31.5c-6.524 0-11.813 5.289-11.813 11.813 0 6.523 5.29 11.812 11.813 11.812z" stroke="#000" stroke-width="2" stroke-linecap="round" stroke-linejoin="round"/></svg>
